X:1
T:Title
%%score 1 { 2 | 3 }
L:1/8
Q:1/4=90
M:4/4
K:Bb
V:1 treble nm="Grand Piano, Soprano"
V:2 bass nm="Choir Pad, Truth Is Marching On"
V:3 bass 
V:1
 [DF][DF] [B,D]>[CE] [DF][DF][EG][DF] | [DF][DF] [DB]>[EA] [FB][Fc] [Fd]2 | %2
w: By~Robert~Lowry * * * * * * *||
 [Fd][Fd] [Fc]>[Fc] [Fc][Fd][Fc][Fc] | [FB][Fc] [Fd]>[Ec] [DB][EG] [DF]2 | %4
w: ||
 [DF][DF] [B,D]>[CE] [DF][DF][EG][DF] | [DF][DF] [FB]>[FB] [Gc][Gd] [Ge]2- | %6
w: ||
 [Ge][Gc] [FB]2 [DB]2 [Fd]2 | [Ec]2 [DB]6- | [DB]2 [Fc]2 F2 [Fd]2 | %9
w: |||
 [DB]2 [Fc]>[Fc] [FB][Fc] [Fd]2 | [DB]2 [EG]2 [EB]2 [DF]2 | [DB]2 [DB]>[DB] [Gc][Gc] [^Fd]2- | %12
w: |||
 [Fd]2 [Ge]2 [=Fc]2 [Fd]2 | [DB]2 [Ec]>[GB] [FA][EG] [EG]2 | [DF]2 [EG]2 [Gc]2 [FB]2 | %15
w: |||
 [EA]2 [DB]6- | [DB]2 z2 z4 |] %17
w: ||
V:2
 B,B, F,>F, B,B,B,B, | B,B, F,>F, B,A, B,2 | B,B, A,>A, A,B,A,A, | G,A, B,>B, B,B, B,2 | %4
 B,B, F,>F, B,B,B,B, | B,B, B,>B, G,=B,[K:treble] C2- | CC D2 B,2[K:bass] A,2 | A,2 B,6- | %8
 B,2 A,2 A,2 B,2 | B,2 A,>A, G,A, B,2 | B,2 B,2 B,2 B,2 | B,2 B,>B, G,G, A,2- | A,2 C2 A,2 B,2 | %13
 B,2 G,>B, B,B, B,2 | B,2 B,2[K:treble] E2 D2 | C2 B,6- | B,2 z2 z4 |] %17
V:3
 B,,B,, B,,>B,, B,,B,,B,,B,, | B,,B,, B,,>C, D,F, z2 | B,,B,, F,>F, F,F,F,F, | %3
 F,F, B,,>B,, B,,B,, B,,2 | B,,B,, B,,>B,, B,,B,,B,,B,, | B,,B,, D,>D, E,D, C,2- | %6
 C,E, F,2 F,2 F,2 | F,2 B,,6- | B,,2 F,2 F,2 z2 | B,,2 F,>F, F,F, z2 | B,,2 E,2 G,2 z2 | %11
 B,,2 G,>G, E,E, D,2- | D,2 C,2 F,2 B,,2 | G,2 E,>E, E,E, B,,2 | B,,2 E,2 C,2 F,2 | F,2 B,,6- | %16
 B,,2 z2 z4 |] %17

